X:17294
T:The Top House
R:jig
C:Composed by Gavin Atkin
S:Copyright: Gavin Atkin 1997
N:A jig dedicated to my wife, Helen Ryan-Atkin. The Top House is the name
N:of a great pub in Saddleworth.
M:6/8
L:1/8
Q:120
K:Em
B |: "Em" efg "D" ~f2d | "C" e2 d "G" B2 B | "Em" gab "D" agf |
"C" g2 b "Em" e2 e | "G" gab "D" agf | "Em" BdB "C" edB | 
"C" ~e2 e "D" agf | "Bm"  bag "Em" e2 e :|
|: "Em" b2 b bag | "Bm" a2 a agf | "G" b2 b bag | "D" fgf f2 B |
"Em" efe "D" def | "C" gag "Em" e2 e | "G" bag "D" fgf |
"C" e2 e   e2 :|
